X: 010164
T: Antrim Rose
S: J.Kelly - P.O'Brien
Z: B.Black
R: reel
M: 4/4
L: 1/8
K: D
de|fd (3dcd edBd|Ad (3dcd AdBd|fd (3dcd edBd|Adgf e2 de |
fd (3dcd edBd|Ad (3dcd AdBd|eaaf gfeg|fedB A2 :|
cd|e3 f edBd|(3efe df efgf|egfd edBd|Addc d2 cd |
e3 f edBd|(3efe df efgf|eaaf gfeg|fedB A2 :|
